packages/icons/assets/Level5MarkerE.svg

<svg xmlns="http://www.w3.org/2000/svg" viewBox="0 0 12 16"><path fill="#414141" d="M3.710938 11.996094H0L1.710938 6 0 .0078125h11.992188L10.277344 6l1.714844 5.996094H8.277344l-2.28125 3.996094Zm0 0"/><path fill="#f0f0f0" d="M5.523438 8h1v1h-1Zm-.027344-4.996094h1V7h-1ZM7.523438 8h.996093v1h-.996093Zm-.03125-4.996094h1V7h-1ZM3.523438 8h1v1h-1Zm-.027344-4.996094h1V7h-1Zm0 0"/></svg>

<svg xmlns="http://www.w3.org/2000/svg" viewBox="0 0 12 16"><path fill="#414141" d="M3.71 12H0l1.71-6L0 0h12l-1.72 6 1.71 6H8.28L6 16Zm0 0"/><path fill="#f0f0f0" d="M5.52 8h1v1h-1ZM5.5 3h1v4h-1Zm2.02 5h1v1h-1ZM7.5 3h1v4h-1ZM3.52 8h1v1h-1ZM3.5 3h1v4h-1Zm0 0"/></svg>
